loleaflet/images/lc_symbolshapes.diamond-bevel.svg

<?xml version="1.0" encoding="utf-8"?>
<!-- Generator: Adobe Illustrator 25.0.0, SVG Export Plug-In . SVG Version: 6.00 Build 0)  -->
<svg version="1.1" id="Layer_1" xmlns="http://www.w3.org/2000/svg" xmlns:xlink="http://www.w3.org/1999/xlink" x="0px" y="0px"
	 viewBox="0 0 26 26" enable-background="new 0 0 26 26" xml:space="preserve">
<path fill-rule="evenodd" clip-rule="evenodd" fill="#6D7075" d="M13,22.9L3.1,13L13,3.1l9.9,9.9L13,22.9z M14,19.1l5.1-5.1H16v2h-2
	V19.1z M13,20.1L13,20.1L13,20.1L13,20.1z M12,19.1V16h-2v-2H6.9L12,19.1z M6,12.9L6,12.9v0.1V12.9z M12,6.9L6.9,12H10v-2h2V6.9z
	 M12,14h2v-2h-2V14z M13,5.9L13,5.9L13,5.9L13,5.9z M14,6.9V10h2v2h3.1L14,6.9z M20,13.1L20,13.1v-0.1V13.1z"/>
</svg>

<svg xmlns="http://www.w3.org/2000/svg" viewBox="0 0 19.8 19.8"><path d="M13,22.9,3.1,13,13,3.1,22.9,13Zm1-3.8L19.1,14H16v2H14Zm-1,1Zm-1-1V16H10V14H6.9ZM6,12.9H6v0Zm6-6L6.9,12H10V10h2ZM12,14h2V12H12Zm1-8.1Zm1,1V10h2v2h3.1Zm6,6.2h0v0Z" transform="translate(-3.1 -3.1)" fill="#6d7075" fill-rule="evenodd"/></svg>
